outputs/icons/navigation/full_screen_exit_sharp.svg

<svg xmlns="http://www.w3.org/2000/svg" width="1200" height="1200" fill="none"><g clip-path="url(#a)"><path fill="#000" d="M250 800h150v150h100V700H250zm150-400H250v100h250V250H400zm300 550h100V800h150V700H700zm100-550V250H700v250h250V400z"/></g><defs><clipPath id="a"><path fill="#fff" d="M0 0h1200v1200H0z"/></clipPath></defs></svg>

<svg width="1200" height="1200" viewBox="0 0 1200 1200" fill="none" xmlns="http://www.w3.org/2000/svg"><g clip-path="url(#clip0_117_958)"><path d="M250 800H400V950H500V700H250V800ZM400 400H250V500H500V250H400V400ZM700 950H800V800H950V700H700V950ZM800 400V250H700V500H950V400H800Z" fill="#1D1E23"/></g><defs><clipPath id="clip0_117_958"><path width="24" fill="white" d="M0 0H1200V1200H0V0z"/></clipPath></defs></svg>
